X: 02075
T: MARCHE MARCOUX
C: Bob McQuillen Apr'75
B: Bob's Note Book 1&2 #75
R: march
Z: 2019 John Chambers <jc:trillian.mit.edu>
M: C
L: 1/4
K: D
A Bc \
| d2 A2 | A>B AG | F2 D2 | DA Bc | d2 f2 | ed cd | e2 A>B | AA Bc |
| d2 A2 | A>B AG | F2 D2 | D2 de | f>f gf | eg fe | d2 d>d | d :|
|: A de \
| f2 f>g | fA de | f>e fg | fA de | f>e fg | af da | ba gf | ec de |
| f>e fg | fA de | f>e fg | fA de | f>efg | af dg | f2 e2 | d :|
%%begintext align
%% Pour un bon ami depuis
%% longtemps, M. Omer Marcoux.
%%endtext

%%sep 1 1 500

%%sep 1 1 500

